X: 28890
T: Mystery, The
R: reel
M: 4/4
K: Gmajor
BG{A}GF GEDE|GABd {e}dBGG|BA (3GGG AEED|1 (3B^cd ed {ga}gedc:|2 (3B^cd ed {ga}ggdB||
B~G3 AGDG|BGAB GEDG|EA{c}AG AzGA|1 (3B^cd ed gedz|2 (3B^cd ed gedB||

